DVA
CUT[Abgewiesener Knabe
    Ist das nicht der Morgenstern,]
CNR[der vor dem Tag aufgeht ?]
REG[Europa, Mitteleuropa, Lothringen, Weiler ( Kr. Forbach )]
KEY[D0011  16  F 6/8]
MEL[-5_  1_2_3b_2_3b_4_  2_1__0__
    54  5_4_3b_1_4_3b_  2__.0__
    3b_  2_3b_4_5_4_5_  1__-7b_-7b__.
    1_.23b_4_.3b2_  3b_2_1__0_ //] >>
FCT[Kilt - Lied, abgewiesener Knabe]
CMT[in der zweiten Zeile rhythmisch korrigiert]
